X: 53
T: The Old Dudeen
C:John McGrath
M: 4/4
L: 1/8
R: reel
K:Bmin
fe|"Bm"dBBA "D"FEFA|dcde fgfe|"Bm"dBBA "D"~F3 A|BdcA "Bm"B2:|
Bc|"Bm"d2 Bc dcde|fbbf "D"afef|"Bm"dBBc dcde|"D"fbaf "A"e2 de|
"Bm"fB~B2 dcde|fbbf "D"a2 fa|"Bm"bfbf "D"abaf|"Bm"bf~f2 "A"e2|]


